img/svg-electric.svg

<svg width="11" height="16" viewBox="0 0 11 16" fill="none" xmlns="http://www.w3.org/2000/svg">
<path fill-rule="evenodd" clip-rule="evenodd" d="M2.55942 0.0183005C2.55632 0.00934247 2.563 0 2.57247 0H8.21096C8.21702 0 8.22238 0.00393775 8.22417 0.00971315L10.814 8.37709C10.8167 8.38596 10.8101 8.39496 10.8008 8.39496H7.04704C7.04247 8.39496 7.03917 8.39932 7.04043 8.40374L9.19331 15.9823C9.19751 15.9971 9.17823 16.0066 9.16904 15.9944L0.802598 4.86836C0.795763 4.85927 0.80225 4.84629 0.813619 4.84629H4.22047C4.22521 4.84629 4.22853 4.84162 4.22696 4.83713L2.55942 0.0183005Z" fill="#EED967"/>
</svg>

<svg width="11" height="16" fill="none" xmlns="http://www.w3.org/2000/svg"><path fill-rule="evenodd" clip-rule="evenodd" d="M2.56.018A.014.014 0 0 1 2.571 0h5.639c.006 0 .011.004.013.01l2.59 8.367a.014.014 0 0 1-.013.018H7.047a.007.007 0 0 0-.007.009l2.153 7.578c.005.015-.015.025-.024.012L.803 4.868a.014.014 0 0 1 .01-.022H4.22a.007.007 0 0 0 .007-.009L2.559.018Z" fill="#EED967"/></svg>
